X:780
T:Wilkes's Release
A:Wyresdale, Lancashire
B:H.S.J. Jackson, 1823
L:1/16
M:2/4
O:England
Z:Richard Robinson 
%%TUNEURL: http://www.leeds.ac.uk/music/Info/RRTuneBk/gettune/00000e68.html
%%ID:00000e68
K:D
A2 |: \
d3fe3g | f2a2 agfe | fafd egec | d2A2 F2D2 | \
d3fe3g | f2a2 agfe | fafd egec | d4 d4 ||
a2 |\
a2g2 fgab | a2d'2a2g2 | g3f efga | g2b2g2e2 |\
f4-fdef   | g4-gefg   | a2ba g2f2 | edcB ABcA !D.C.! |]
